icons/art/art_logo-alfabank_xs_color.svg

<?xml version="1.0" encoding="UTF-8"?>
<svg width="64px" height="64px" viewBox="0 0 64 64" version="1.1" xmlns="http://www.w3.org/2000/svg" xmlns:xlink="http://www.w3.org/1999/xlink">
    <!-- Generator: Sketch 48.2 (47327) - http://www.bohemiancoding.com/sketch -->
    <title>art_logo-alfabank_xs_color</title>
    <desc>Created with Sketch.</desc>
    <defs></defs>
    <g id="Artboard-2" stroke="none" stroke-width="1" fill="none" fill-rule="evenodd" transform="translate(-262.000000, -131.000000)">
        <g id="art_logo-alfabank_xs_color" transform="translate(262.000000, 131.000000)">
            <polygon id="Shape" points="0 0 64 0 64 64 0 64"></polygon>
            <rect id="Rectangle-path" fill="#F03226" fill-rule="nonzero" x="0" y="0" width="64" height="64" rx="32"></rect>
            <path d="M22,43.1 L42,43.1 L42,46.9 L22,46.9 L22,43.1 Z M35.305,19.942 C35.539,20.564 40.984,35.165 41.147,35.603 C41.192,35.724 41.162,35.926 40.97,35.998 C40.777,36.07 37.947,37.147 37.791,37.205 C37.6337604,37.2593779 37.4616337,37.1799348 37.401,37.025 C37.343,36.873 36.291,33.533 36.159,33.177 L28.022,33.177 C27.889,33.533 26.652,36.879 26.598,37.025 C26.5703135,37.1007092 26.5135991,37.1622647 26.4404059,37.1960461 C26.3672128,37.2298276 26.2835753,37.2330499 26.208,37.205 C26.043,37.14 23.2,36.061 23.032,35.998 C22.9555906,35.9696973 22.8936249,35.9120886 22.8598364,35.8379416 C22.826048,35.7637947 22.8232274,35.6792337 22.852,35.603 C23.052,35.056 28.415,20.689 28.69,19.943 C29.22,18.493 29.903,17 31.999,17 C34.095,17 34.754,18.47 35.305,19.942 Z M29.255,29.789 L34.755,29.789 L32.017,21.769 L31.983,21.769 L29.254,29.789 L29.255,29.789 Z" id="Shape" fill="#FFFFFF" fill-rule="nonzero"></path>
        </g>
    </g>
</svg>

<svg width="64" height="64" viewBox="0 0 64 64" xmlns="http://www.w3.org/2000/svg"><title>art_alfabank_logo__xs__color</title><g fill="none" fill-rule="evenodd"><path d="M0 0h64v64H0z"/><rect fill="#F03226" width="64" height="64" rx="32"/><path d="M22 43.1h20v3.8H22v-3.8zm13.305-23.158c.234.622 5.679 15.223 5.842 15.661.045.121.015.323-.177.395-.193.072-3.023 1.149-3.179 1.207a.31.31 0 0 1-.39-.18c-.058-.152-1.11-3.492-1.242-3.848h-8.137c-.133.356-1.37 3.702-1.424 3.848a.303.303 0 0 1-.39.18c-.165-.065-3.008-1.144-3.176-1.207a.306.306 0 0 1-.18-.395c.2-.547 5.563-14.914 5.838-15.66.53-1.45 1.213-2.943 3.309-2.943s2.755 1.47 3.306 2.942zm-6.05 9.847h5.5l-2.738-8.02h-.034l-2.729 8.02z" fill="#FFF"/></g></svg>
